packages/astro-components-stencil/src/icons/horizontal-split.svg

<svg xmlns="http://www.w3.org/2000/svg" viewBox="0 0 24 24"><g xmlns="http://www.w3.org/2000/svg" id="horizontal-split" fill-rule="nonzero">
            <path d="M4 19h16c.55 0 1-.45 1-1v-4c0-.55-.45-1-1-1H4c-.55 0-1 .45-1 1v4c0 .55.45 1 1 1zm0-8h16c.55 0 1-.45 1-1s-.45-1-1-1H4c-.55 0-1 .45-1 1s.45 1 1 1zM3 6c0 .55.45 1 1 1h16c.55 0 1-.45 1-1s-.45-1-1-1H4c-.55 0-1 .45-1 1z"/>
        </g></svg>

<svg width="24" height="24" viewBox="0 0 24 24" fill="none" xmlns="http://www.w3.org/2000/svg">
<path fill-rule="evenodd" clip-rule="evenodd" d="M4 7C3.45 7 3 6.55 3 6C3 5.45 3.45 5 4 5H20C20.55 5 21 5.45 21 6C21 6.55 20.55 7 20 7H4ZM4 11H20C20.55 11 21 10.55 21 10C21 9.45 20.55 9 20 9H4C3.45 9 3 9.45 3 10C3 10.55 3.45 11 4 11ZM4 19H20C20.55 19 21 18.55 21 18V14C21 13.45 20.55 13 20 13H4C3.45 13 3 13.45 3 14V18C3 18.55 3.45 19 4 19Z" fill="black"/>
</svg>
